X:143
T:
M:3/4
L:1/8
K:G
V:1
|:\
D2 BDcD | A2 FDFA | D2 ADBD | G2 BDGB |\
D2 BDcD | A2 FDFA | D2 ADBD | G4 :|
V:2
|:\
D2 dDeD | c2 ADAc | D2 cDdD | B2 dDBd |\
D2 dDeD | c2 ADAc | D2 cDdD | B4 :|
